!!!SOCIAL_FUNCTION:	memorial ceremony songs
!!!PDT:	1932
!!!OTL: No_24_Memorial_Ceremony_Song_(e).krn
!!!REG: Southwest
!!!LANG: Non-Tone
!!!LING_GROUP: Yuman-Cochimi
**kern
*staff1
=1-
*clefF4
*k[f#c#g#d#]
*M3/4
8F#\L
8F#\J
4F#\
8F#\L
8G#\J
=2
4F#\
4F#\
8F#\L
8G#\J
=3
4F#\
4F#\
8F#\L
8G#\J
=4
4F#\
4F#\
4F#\
=5
4F#\
4C#/
8r
8E\
=6||
*M2/4
8E\L
8F#\J
4E\
=7
[2C#/
=8||
*M3/4
2C#/]
4C#/
=9||
*M2/4
2C#/
=10
4r
8r
8C#/
=11||
*M3/4
4E\
4E\
8E\L
8F#\J
=12
4E\
4E\
8E\L
8F#\J
=13
4E\
4E\
8E\L
8F#\J
=14||
*M2/4
4E\
4E\
=15
8E\L
8F#\J
4E\
=16
4C#/
8r
8E\
=17
8E\L
8F#\J
4E\
=18
[2C#/
=19
4C#/]
4C#/
=20||
*M3/4
2C#/
4r
=21
4F#\
4F#\
8F#\L
8G#\J
=22
[2.F#\
=23
2.F#\_
=24
2.F#\]
=25||
*M2/4
2r
=26||
*M3/4
4F#\
4F#\
4F#\
=27
8F#\L
8G#\J
4F#\
4F#\
=28
8F#\L
8G#\J
4F#\
4F#\
=29
8F#\L
8G#\J
4F#\
4F#\
=30
4F#\
4F#\
4C#/
=31||
*M2/4
4r
8r
8E\
=32
8E\L
8F#\J
4E\
=33||
*M3/4
[2.C#/
=34||
*M2/4
4C#/]
4C#/
=35
[2C#/
=36
4C#/]
4C#/
=37||
*M3/4
4E\
4E\
8E\L
8F#\J
=38||
*M2/4
4E\
4E\
=39
8E\L
8F#\J
4E\
=40||
*M3/4
[2.C#/
=41||
*M2/4
4C#/]
4C#/
=42
[2C#/
=43
4C#/]
4r
=44||
*M3/4
4F#\
4F#\
8F#\L
8G#\J
=45||
*M2/4
4F#\
4F#\
=46
8F#\L
8G#\J
4F#\
=47
[2C#/
=48||
*M3/4
2C#/]
4C#/
=49
2C#/
4r
=50
4F#\
4F#\
8F#\L
8G#\J
=51
[2.F#\
=52
2.F#\_
=53
2.F#\]
=54
2.r
=55
4F#\
4F#\
4F#\
=56
8F#\L
8G#\J
4F#\
4F#\
=57
8F#\L
8G#\J
4F#\
4F#\
=58
8F#\L
8G#\J
4F#\
4F#\
=59||
*M2/4
4F#\
4F#\
=60
4C#/
8r
8E\
=61
8E\L
8F#\J
4E\
=62||
*M3/4
[2.C#/
=63||
*M2/4
4C#/]
4C#/
=64
2C#/
=65
!!pagebreak:default
4r
4C#/
=66||
*M3/4
4E\
4E\
8E\L
8F#\J
=67||
*M2/4
4E\
4E\
=68
8E\L
8F#\J
4E\
=69
[2C#/
=70
4C#/]
8C#/L
8D#/J
=71
2C#/
=72
4r
4E\
=73||
*M3/4
4E\
4E\
8E\L
8F#\J
=74
4E\
4E\
8E\L
8F#\J
=75
4E\
4E\
8E\L
8F#\J
=76||
*M2/4
4E\
4E\
=77
4E\
4E\
=78
4C#/
8r
8E\
=79
8E\L
8F#\J
4E\
=80
[2C#/
=81
4C#/]
4C#/
=82
2C#/
==
*-
